packages/core/src/svgs/xtp.svg

<svg width="24" height="24" viewBox="0 0 24 24" fill="none" xmlns="http://www.w3.org/2000/svg">
<g clip-path="url(#clip0_31_21051)">
<path d="M0 0H24V24H0V0Z" fill="#3377F8"/>
<path d="M15.4285 5.14307H8.57139C6.67785 5.14307 5.14282 6.67809 5.14282 8.57164V15.4288C5.14282 17.3223 6.67785 18.8574 8.57139 18.8574H15.4285C17.3221 18.8574 18.8571 17.3223 18.8571 15.4288V8.57164C18.8571 6.67809 17.3221 5.14307 15.4285 5.14307Z" fill="white"/>
<path d="M7.01989 11.8627C7.01989 8.46409 9.79703 7.01123 11.9527 7.01123C15.7113 7.01123 17.0356 9.94694 17.0356 12.0084C17.0356 13.0884 16.7656 13.6627 16.6713 13.8855C16.5942 14.0698 16.3285 14.3998 15.9599 14.2112C15.6642 14.0612 15.7156 13.5898 15.8527 13.3541C16.0799 12.9684 16.1013 12.3169 16.0799 12.0084C16.0799 8.96552 13.367 7.93266 11.9527 7.93266C10.7785 7.93266 7.96703 8.73409 7.9456 12.0084C7.93275 14.6312 10.3327 15.8312 11.5027 16.0584C11.7427 16.0755 12.1713 16.1869 12.1199 16.5555C12.0727 16.9241 11.6999 16.9241 11.5027 16.9241C10.2604 16.7879 9.11312 16.1942 8.28445 15.2586C7.45578 14.323 7.005 13.1124 7.01989 11.8627Z" fill="#3377F8"/>
<path d="M8.85864 11.8884C8.85864 10.067 10.5344 8.80267 12.1115 8.87981C14.4515 8.98695 15.1115 10.9112 15.1115 11.9827C15.1115 12.6512 14.9101 12.737 14.6401 12.737C14.3744 12.737 14.2972 12.3384 14.2972 11.9827C14.2938 11.4052 14.062 10.8526 13.6525 10.4454C13.243 10.0383 12.689 9.8098 12.1115 9.80981C11.3701 9.80981 9.75436 10.2127 9.7415 11.9827C9.73721 13.1398 10.4444 13.967 11.1772 14.1041C11.3786 14.147 11.5758 14.3612 11.5201 14.5884C11.4601 14.8198 11.2801 14.8627 11.0615 14.8627C10.0501 14.8112 8.85864 13.7141 8.85864 11.8884Z" fill="#3377F8"/>
<path d="M13.787 13.4056C13.4061 13.7837 12.9446 14.0709 12.437 14.2456C12.2442 14.3013 12.1885 14.6527 12.3085 14.8799C12.4242 15.107 12.6942 15.2013 12.8527 15.1242C13.4132 14.8854 13.9257 14.5471 14.3656 14.1256C14.4513 14.027 14.567 13.7742 14.3656 13.5127C14.1599 13.2556 13.877 13.3199 13.787 13.4056Z" fill="#3377F8"/>
</g>
<defs>
<clipPath id="clip0_31_21051">
<rect width="24" height="24" fill="white"/>
</clipPath>
</defs>
</svg>

<svg xmlns="http://www.w3.org/2000/svg" width="24" height="24" fill="none" viewBox="0 0 24 24"><g clip-path="url(#a)"><path fill="#3377F8" d="M0 0h24v24H0z"/><path fill="#fff" d="M15.429 5.143H8.57a3.43 3.43 0 0 0-3.428 3.429v6.857a3.43 3.43 0 0 0 3.428 3.428h6.858a3.43 3.43 0 0 0 3.428-3.428V8.572a3.43 3.43 0 0 0-3.428-3.429"/><path fill="#3377F8" d="M7.02 11.863c0-3.399 2.777-4.852 4.933-4.852 3.758 0 5.083 2.936 5.083 4.997 0 1.08-.27 1.655-.365 1.878-.077.184-.343.514-.711.325-.296-.15-.244-.621-.107-.857.227-.386.248-1.037.227-1.346 0-3.042-2.713-4.075-4.127-4.075-1.174 0-3.986.801-4.007 4.075-.013 2.623 2.387 3.823 3.557 4.05.24.018.668.129.617.497-.047.37-.42.37-.617.37a5.03 5.03 0 0 1-4.483-5.062"/><path fill="#3377F8" d="M8.859 11.888c0-1.821 1.675-3.085 3.252-3.008 2.34.107 3 2.031 3 3.103 0 .668-.2.754-.47.754-.267 0-.344-.399-.344-.754a2.186 2.186 0 0 0-2.186-2.173c-.74 0-2.357.403-2.37 2.173-.004 1.157.703 1.984 1.436 2.121.202.043.399.257.343.484-.06.232-.24.275-.458.275-1.012-.052-2.203-1.149-2.203-2.975"/><path fill="#3377F8" d="M13.787 13.406c-.38.378-.842.665-1.35.84-.193.055-.248.407-.128.634.115.227.385.321.544.244a5 5 0 0 0 1.513-.998.48.48 0 0 0 0-.613c-.206-.257-.489-.193-.579-.107"/></g><defs><clipPath id="a"><path fill="#fff" d="M0 0h24v24H0z"/></clipPath></defs></svg>
